X:165
T:Playhouse Squabble THO3 165, The
O:England;London
M:C|
L:1/8
Z:vmp. Peter Dunk 2011.from a transcription by Fynn Titford-Mock 2006-9
B:Thompson's Compleat Collection of 200 Favourite Country Dances Vol. III.1765-72
Q:1/2=80
K:G
GBdg ce Tc2|dBAc BG TG2|GBdg gfbg|fed^c d2D2:|
|:GB/c/ dB Gc/d/ ec|GB/c/ dB cA TA2|GB/c/ dB dgfg| (3dBG (3cAF G2G,2:|

